src/assets/icons/flag-fill.svg

<svg width="14" height="14" viewBox="0 0 14 14" fill="none" xmlns="http://www.w3.org/2000/svg">
<g id="flag-fill">
<g clip-path="url(#clip0_156_4715)">
<path id="Vector" d="M12.9389 0.958002C12.7748 0.845178 12.5652 0.823573 12.382 0.895589C11.2825 1.32768 9.83261 1.76617 9.40292 1.71336C8.95403 1.66375 8.24507 1.29327 7.56013 0.934797C6.70074 0.485101 5.88857 0.06101 5.18522 0.00739849C4.1554 -0.0854214 1.69167 0.722752 1.20836 0.885187C0.963512 0.966804 0.798676 1.19645 0.798676 1.45411V8.27877V13.3999C0.798676 13.7311 1.06753 14 1.3988 14C1.73008 14 1.99893 13.7311 1.99893 13.3999V8.71486C3.05196 8.38439 4.54668 7.98351 5.0892 8.02912C5.5501 8.06433 6.32306 8.46841 7.00481 8.82369C7.82418 9.25178 8.59795 9.65587 9.26769 9.73108C9.3245 9.73748 9.38532 9.74069 9.45093 9.74069C10.4655 9.74069 12.418 8.99492 12.8205 8.83729C13.0501 8.74687 13.2013 8.52522 13.2013 8.27877V1.45411C13.2013 1.25647 13.1029 1.07003 12.9389 0.958002Z" fill="black"/>
</g>
</g>
<defs>
<clipPath id="clip0_156_4715">
<rect width="14" height="14" fill="white"/>
</clipPath>
</defs>
</svg>

<svg xmlns="http://www.w3.org/2000/svg" fill="none" viewBox="0 0 14 14"><g clip-path="url(#a)"><path fill="#000" d="M12.939.958a.6.6 0 0 0-.557-.062c-1.1.432-2.55.87-2.98.817-.448-.05-1.157-.42-1.842-.778C6.7.485 5.89.06 5.185.007c-1.03-.092-3.493.716-3.977.878a.6.6 0 0 0-.41.57v11.944a.6.6 0 0 0 1.2 0V8.716c1.054-.33 2.549-.731 3.091-.686.461.035 1.234.44 1.916.795.82.428 1.593.832 2.263.907q.084.01.183.01c1.015 0 2.967-.746 3.37-.904a.6.6 0 0 0 .38-.558V1.454a.6.6 0 0 0-.262-.496"/></g><defs><clipPath id="a"><path fill="#fff" d="M0 0h14v14H0z"/></clipPath></defs></svg>
